Origami/64x64/apps/goa-account-todoist.svg

<svg width="64" height="64" version="1" xmlns="http://www.w3.org/2000/svg">
 <path d="m4.0000004 56.200069v1.999971c0 1.549978 1.2495821 2.79996 2.80076 2.79996h50.39928c1.549977 0 2.79996-1.249982 2.79996-2.79996v-1.999971c0 1.549977-1.249983 2.79996-2.79996 2.79996h-50.39928c-1.5503779 0-2.79996-1.249983-2.79996-2.79996z" style="opacity:.2"/>
 <rect transform="matrix(0,-1,-1,0,0,0)" x="-60" y="-60" width="55.999" height="55.999" rx="2.8" ry="2.8" style="fill:#c2352a"/>
 <path d="m6.8007812 4c-1.5511778 0-2.8007812 1.2496034-2.8007812 2.8007812v1.0019532c0-1.5511778 1.2496034-2.8007813 2.8007812-2.8007813h50.398438c1.549977 0 2.800781 1.2496035 2.800781 2.8007813v-1.0019532c0-1.5511777-1.250804-2.8007812-2.800781-2.8007812h-50.398438z" style="fill:#ffffff;opacity:.2"/>
 <path d="m39.871487 10.979324a3.0003571 3.0003571 0 0 0 -1.33598 0.402195l-23.655662 13.24681-10.879845-5.121927v6.631905l9.7224606 4.575935a3.0003571 3.0003571 0 0 0 2.742161 -0.09766l24.999643-14.000398a3.0003571 3.0003571 0 0 0 -1.292942 -5.63672 3.0003571 3.0003571 0 0 0 -0.300776 0zm0 9.999857a3.0003571 3.0003571 0 0 0 -1.33592 0.402335l-23.655662 13.24781-10.879845-5.121927v6.631905l9.7224606 4.575935a3.0003571 3.0003571 0 0 0 2.742161 -0.09766l24.999643-13.999798a3.0003571 3.0003571 0 0 0 -1.292942 -5.63672 3.0003571 3.0003571 0 0 0 -0.300776 0zm0 9.999857a3.0003571 3.0003571 0 0 0 -1.33592 0.402335l-23.655662 13.24781-10.879845-5.121927v6.631905l9.7224606 4.575935a3.0003571 3.0003571 0 0 0 2.742161 -0.09766l24.999643-13.999798a3.0003571 3.0003571 0 0 0 -1.292942 -5.63672 3.0003571 3.0003571 0 0 0 -0.300776 0z" style="fill-rule:evenodd;opacity:.2"/>
 <path d="m39.871487 9.9811439a3.0003571 3.0003571 0 0 0 -1.33598 0.4023941l-23.655662 13.245011-10.879845-5.120127v6.632105l9.7224606 4.573935a3.0003571 3.0003571 0 0 0 2.742161 -0.096l24.999643-14.0006a3.0003571 3.0003571 0 0 0 -1.291982 -5.6367191 3.0003571 3.0003571 0 0 0 -0.299996 0zm0 9.9998571a3.0003571 3.0003571 0 0 0 -1.33598 0.401594l-23.655662 13.245811-10.879845-5.119927v6.631905l9.7224606 4.573935a3.0003571 3.0003571 0 0 0 2.742161 -0.096l24.999643-13.9998a3.0003571 3.0003571 0 0 0 -1.291982 -5.637519 3.0003571 3.0003571 0 0 0 -0.299996 0zm0 9.999457a3.0003571 3.0003571 0 0 0 -1.33598 0.401994l-23.655662 13.245811-10.879845-5.119927v6.631905l9.7224606 4.573935a3.0003571 3.0003571 0 0 0 2.742161 -0.096l24.999643-13.9998a3.0003571 3.0003571 0 0 0 -1.291982 -5.637919 3.0003571 3.0003571 0 0 0 -0.299996 0z" style="fill-rule:evenodd;fill:#ffffff"/>
</svg>

<svg xmlns="http://www.w3.org/2000/svg" width="64" height="64" version="1">
 <path style="opacity:0.2" d="m 4.0000004,56.200069 0,1.999971 c 0,1.549978 1.2495821,2.79996 2.80076,2.79996 L 57.20004,61 C 58.750017,61 60,59.750018 60,58.20004 l 0,-1.999971 c 0,1.549977 -1.249983,2.79996 -2.79996,2.79996 l -50.3992796,0 c -1.5503779,0 -2.79996,-1.249983 -2.79996,-2.79996 z"/>
 <rect style="fill:#c2352a" width="55.999" height="55.999" x="-60" y="-60" rx="2.8" ry="2.8" transform="matrix(0,-1,-1,0,0,0)"/>
 <path style="opacity:0.2;fill:#ffffff" d="M 6.8007812 4 C 5.2496034 4 4 5.2496034 4 6.8007812 L 4 7.8027344 C 4 6.2515566 5.2496034 5.0019531 6.8007812 5.0019531 L 57.199219 5.0019531 C 58.749196 5.0019531 60 6.2515566 60 7.8027344 L 60 6.8007812 C 60 5.2496035 58.749196 4 57.199219 4 L 6.8007812 4 z"/>
 <path style="opacity:0.2;fill-rule:evenodd" d="m 39.871487,10.979324 a 3.0003571,3.0003571 0 0 0 -1.33598,0.402195 l -23.655662,13.24681 -10.8798446,-5.121927 0,6.631905 9.7224606,4.575935 a 3.0003571,3.0003571 0 0 0 2.742161,-0.09766 L 41.464265,16.616184 a 3.0003571,3.0003571 0 0 0 -1.292942,-5.63672 3.0003571,3.0003571 0 0 0 -0.300776,0 z m 0,9.999857 a 3.0003571,3.0003571 0 0 0 -1.33592,0.402335 l -23.655662,13.24781 -10.8798446,-5.121927 0,6.631905 9.7224606,4.575935 a 3.0003571,3.0003571 0 0 0 2.742161,-0.09766 L 41.464325,26.617781 a 3.0003571,3.0003571 0 0 0 -1.292942,-5.63672 3.0003571,3.0003571 0 0 0 -0.300776,0 z m 0,9.999857 a 3.0003571,3.0003571 0 0 0 -1.33592,0.402335 l -23.655662,13.24781 -10.8798446,-5.121927 0,6.631905 9.7224606,4.575935 a 3.0003571,3.0003571 0 0 0 2.742161,-0.09766 L 41.464325,36.617638 a 3.0003571,3.0003571 0 0 0 -1.292942,-5.63672 3.0003571,3.0003571 0 0 0 -0.300776,0 z"/>
 <path style="fill:#ffffff;fill-rule:evenodd" d="m 39.871487,9.9811439 a 3.0003571,3.0003571 0 0 0 -1.33598,0.4023941 L 14.879845,23.628549 4.0000004,18.508422 l 0,6.632105 9.7224606,4.573935 a 3.0003571,3.0003571 0 0 0 2.742161,-0.096 l 24.999643,-14.0006 a 3.0003571,3.0003571 0 0 0 -1.291982,-5.6367191 3.0003571,3.0003571 0 0 0 -0.299996,0 z m 0,9.9998571 a 3.0003571,3.0003571 0 0 0 -1.33598,0.401594 L 14.879845,33.628406 4.0000004,28.508479 l 0,6.631905 9.7224606,4.573935 a 3.0003571,3.0003571 0 0 0 2.742161,-0.096 l 24.999643,-13.9998 a 3.0003571,3.0003571 0 0 0 -1.291982,-5.637519 3.0003571,3.0003571 0 0 0 -0.299996,0 z m 0,9.999457 a 3.0003571,3.0003571 0 0 0 -1.33598,0.401994 L 14.879845,43.628263 4.0000004,38.508336 l 0,6.631905 9.7224606,4.573935 a 3.0003571,3.0003571 0 0 0 2.742161,-0.096 l 24.999643,-13.9998 a 3.0003571,3.0003571 0 0 0 -1.291982,-5.637919 3.0003571,3.0003571 0 0 0 -0.299996,0 z"/>
</svg>
